public/logos/gitlab.svg

<svg width="20" height="20" viewBox="0 0 20 20" fill="none" xmlns="http://www.w3.org/2000/svg">
  <rect width="20" height="20" rx="4" fill="#2E2B6B" />
  <path
    d="M15.8001 9.35409L15.7837 9.31285L14.1509 5.25768C14.1174 5.1781 14.0585 5.11052 13.9825 5.06442C13.9066 5.01831 13.8173 4.99599 13.7274 5.00059C13.6374 5.00519 13.5513 5.03648 13.4809 5.09006C13.4106 5.14365 13.3597 5.21685 13.3352 5.29939L12.2326 8.51217H7.76764L6.665 5.29939C6.64005 5.21728 6.58886 5.1446 6.51854 5.09144C6.44822 5.03828 6.36225 5.00728 6.27258 5.00275C6.1829 4.99821 6.09397 5.02036 6.01813 5.06613C5.94228 5.1119 5.88329 5.17901 5.84934 5.25814L4.21705 9.3133L4.2002 9.35409C3.96519 9.93875 3.93626 10.5803 4.11778 11.182C4.2993 11.7836 4.68143 12.3128 5.20653 12.6897L5.21231 12.6943L5.22676 12.7044L7.71131 14.4767L9.6922 15.9025C9.78009 15.9658 9.88728 16 9.99748 16C10.1077 16 10.2149 15.9658 10.3027 15.9025L12.2841 14.4767L14.7865 12.6938L14.7932 12.6892C15.3183 12.3124 15.7005 11.7834 15.8821 11.1818C16.0637 10.5802 16.0349 9.93874 15.8001 9.35409Z"
    fill="#E24329" />
  <path
    d="M15.8001 9.35409L15.7837 9.31285C14.9879 9.46825 14.2383 9.78914 13.5881 10.2527L10.0024 12.834L12.2857 14.4766L14.788 12.6937L14.7948 12.6891C15.3196 12.3122 15.7007 11.7834 15.8821 11.1818C16.0637 10.5802 16.0349 9.93874 15.8001 9.35409Z"
    fill="#FC6D26" />
  <path
    d="M7.71131 14.4767L9.6922 15.9025C9.78009 15.9658 9.88728 16 9.99748 16C10.1077 16 10.2149 15.9658 10.3027 15.9025L12.2841 14.4767L10.0005 12.834L7.71131 14.4767Z"
    fill="#FCA326" />
  <path
    d="M6.41234 10.2527C5.76227 9.78917 5.01281 9.46842 4.21705 9.3133L4.2002 9.35409C3.96519 9.93875 3.93626 10.5803 4.11778 11.182C4.2993 11.7836 4.68143 12.3128 5.20653 12.6897L5.21231 12.6943L5.22676 12.7044L7.71131 14.4767L9.99616 12.834L6.41234 10.2527Z"
    fill="#FC6D26" />
</svg>

<svg xmlns="http://www.w3.org/2000/svg" fill="none" viewBox="0 0 20 20">
  <rect width="20" height="20" fill="#2E2B6B" rx="4" />
  <path fill="#E24329"
    d="m15.8 9.354-.016-.041-1.633-4.055a.415.415 0 0 0-.168-.194.448.448 0 0 0-.502.026.41.41 0 0 0-.146.21l-1.102 3.212H7.768L6.665 5.3a.411.411 0 0 0-.146-.208.445.445 0 0 0-.67.167L4.217 9.313l-.017.041a2.755 2.755 0 0 0-.082 1.828c.181.602.563 1.13 1.089 1.508l.005.004.015.01 2.484 1.773 1.981 1.425a.523.523 0 0 0 .61 0l1.982-1.425 2.502-1.783.007-.005a2.888 2.888 0 0 0 1.09-1.507 2.755 2.755 0 0 0-.083-1.828Z" />
  <path fill="#FC6D26"
    d="m15.8 9.354-.016-.041a5.646 5.646 0 0 0-2.196.94l-3.586 2.581 2.284 1.643 2.502-1.783.007-.005a2.885 2.885 0 0 0 1.087-1.507 2.755 2.755 0 0 0-.082-1.828Z" />
  <path fill="#FCA326"
    d="m7.711 14.477 1.981 1.425a.523.523 0 0 0 .61 0l1.982-1.425L10 12.834l-2.289 1.643Z" />
  <path fill="#FC6D26"
    d="M6.412 10.253a5.64 5.64 0 0 0-2.195-.94l-.017.041a2.755 2.755 0 0 0-.082 1.828c.181.602.563 1.13 1.089 1.508l.005.004.015.01 2.484 1.773 2.285-1.643-3.584-2.581Z" />
</svg>
